dist/assets/images/icons/visible.svg

<svg width="24" height="24" viewBox="0 0 24 24" fill="none" xmlns="http://www.w3.org/2000/svg">
<path d="M22.4132 11.6867C20.1665 7.53335 16.2265 5.02002 11.8665 5.02002C7.50648 5.02002 3.55982 7.53335 1.33315 11.6867L1.14648 12L1.31982 12.32C3.56648 16.4734 7.50648 18.9867 11.8665 18.9867C16.2265 18.9867 20.1732 16.5067 22.4132 12.32L22.5865 12L22.4132 11.6867ZM11.8665 17.62C8.11315 17.62 4.66648 15.5267 2.66648 12C4.66648 8.47335 8.11315 6.38002 11.8665 6.38002C15.6198 6.38002 19.0265 8.48002 21.0598 12C19.0265 15.5267 15.6132 17.62 11.8665 17.62Z" fill="black"/>
<path d="M12.0605 7.44666C11.1565 7.45325 10.2749 7.72757 9.52675 8.23498C8.77864 8.74238 8.19768 9.4601 7.85724 10.2975C7.5168 11.1349 7.43216 12.0544 7.61399 12.9398C7.79583 13.8253 8.23599 14.637 8.87889 15.2725C9.52179 15.9079 10.3386 16.3386 11.2261 16.5101C12.1136 16.6816 13.0321 16.5863 13.8654 16.2361C14.6988 15.886 15.4097 15.2967 15.9084 14.5427C16.407 13.7888 16.6711 12.9039 16.6671 12C16.6645 11.3983 16.5432 10.803 16.3101 10.2483C16.077 9.69353 15.7367 9.19025 15.3088 8.76726C14.8808 8.34427 14.3736 8.00988 13.8162 7.78327C13.2588 7.55665 12.6622 7.44226 12.0605 7.44666ZM12.0605 15.26C11.422 15.2534 10.7997 15.0583 10.2717 14.6992C9.7437 14.3401 9.3336 13.833 9.09289 13.2416C8.85219 12.6501 8.7916 12.0008 8.91874 11.375C9.04588 10.7493 9.35509 10.1751 9.80752 9.72446C10.2599 9.27388 10.8354 8.96702 11.4617 8.84243C12.0879 8.71785 12.7371 8.78108 13.3275 9.0242C13.9179 9.26732 14.4234 9.67949 14.7803 10.2089C15.1373 10.7384 15.3298 11.3615 15.3338 12C15.3356 12.4297 15.252 12.8555 15.088 13.2527C14.924 13.6499 14.6827 14.0106 14.3782 14.3139C14.0737 14.6171 13.7121 14.8569 13.3142 15.0193C12.9163 15.1817 12.4902 15.2635 12.0605 15.26Z" fill="black"/>
</svg>

<svg width="24" height="24" fill="none" xmlns="http://www.w3.org/2000/svg"><path d="M22.413 11.687C20.166 7.533 16.227 5.02 11.867 5.02c-4.36 0-8.307 2.513-10.534 6.667L1.146 12l.174.32c2.246 4.153 6.186 6.667 10.546 6.667 4.36 0 8.307-2.48 10.547-6.667l.174-.32-.174-.313zM11.867 17.62c-3.754 0-7.2-2.093-9.2-5.62 2-3.527 5.446-5.62 9.2-5.62 3.753 0 7.16 2.1 9.193 5.62-2.034 3.527-5.447 5.62-9.193 5.62z" fill="#000"/><path d="M12.06 7.447a4.573 4.573 0 10.067 9.146 4.573 4.573 0 00-.067-9.146zm0 7.813a3.24 3.24 0 113.028-2.007 3.247 3.247 0 01-3.027 2.007z" fill="#000"/></svg>
